icons/hasuraconfig.svg

<!--
  - The MIT License (MIT)
  -
  - Copyright (c) 2015-2024 Elior "Mallowigi" Boukhobza
  -
  - Permission is hereby granted, free of charge, to any person obtaining a copy
  - of this software and associated documentation files (the "Software"), to deal
  - in the Software without restriction, including without limitation the rights
  - to use, copy, modify, merge, publish, distribute, sublicense, and/or sell
  - copies of the Software, and to permit persons to whom the Software is
  - furnished to do so, subject to the following conditions:
  -
  - The above copyright notice and this permission notice shall be included in all
  - copies or substantial portions of the Software.
  -
  - THE SOFTWARE IS PROVIDED "AS IS", WITHOUT WARRANTY OF ANY KIND, EXPRESS OR
  - IMPLIED, INCLUDING BUT NOT LIMITED TO THE WARRANTIES OF MERCHANTABILITY,
  - FITNESS FOR A PARTICULAR PURPOSE AND NONINFRINGEMENT. IN NO EVENT SHALL THE
  - AUTHORS OR COPYRIGHT HOLDERS BE LIABLE FOR ANY CLAIM, DAMAGES OR OTHER
  - LIABILITY, WHETHER IN AN ACTION OF CONTRACT, TORT OR OTHERWISE, ARISING FROM,
  - OUT OF OR IN CONNECTION WITH THE SOFTWARE OR THE USE OR OTHER DEALINGS IN THE
  - SOFTWARE.
  -
  -->

<svg  width="16px" height="16px" viewBox="0 0 27 27" xmlns="http://www.w3.org/2000/svg">
  <g fill="#90A4AE" data-iconColor="Hasura Config">
    <path
        d="M26.1937 9.08049C26.9694 6.68866 26.5028 1.91698 25 0.155363C24.803 -0.0757182 24.4364 -0.0427066 24.2728 0.212383L22.4215 3.09039C21.964 3.66659 21.1399 3.79864 20.5187 3.3965C18.5099 2.09404 16.1102 1.33778 13.5318 1.33778C10.9533 1.33778 8.55361 2.09404 6.54478 3.3965C5.92668 3.79864 5.10254 3.66359 4.642 3.09039L2.79072 0.212383C2.62711 -0.0427066 2.26049 -0.0727172 2.06354 0.155363C0.56071 1.91998 0.0941038 6.69166 0.869761 9.08049C1.1273 9.87577 1.19699 10.7161 1.0455 11.5324C0.894 12.3426 0.742504 13.321 0.742504 14.0022C0.742504 20.9977 6.46903 26.6667 13.5287 26.6667C20.5914 26.6667 26.3149 20.9947 26.3149 14.0022C26.3149 13.321 26.1634 12.3426 26.0119 11.5324C25.8635 10.7161 25.9362 9.87577 26.1937 9.08049ZM13.5287 23.8397C8.06883 23.8397 3.63001 19.4401 3.63001 14.0322C3.63001 13.8552 3.63607 13.6811 3.64516 13.507C3.8421 9.82175 6.10241 6.67365 9.29897 5.17312C10.5806 4.56691 12.0168 4.23079 13.5318 4.23079C15.0467 4.23079 16.4799 4.56691 17.7645 5.17612C20.9611 6.67665 23.2214 9.82776 23.4183 13.51C23.4274 13.6841 23.4335 13.8612 23.4335 14.0352C23.4305 19.4401 18.9886 23.8397 13.5287 23.8397Z"
    />
    <path
        d="M17.819 17.8075L15.289 13.462L13.1196 9.83971C13.0681 9.75268 12.9742 9.70166 12.8742 9.70166H10.8017C10.6987 9.70166 10.6048 9.75568 10.5533 9.84571C10.5018 9.93274 10.5048 10.0408 10.5563 10.1278L12.6318 13.582L9.8473 17.7895C9.78973 17.8765 9.7867 17.9876 9.83518 18.0776C9.88366 18.1676 9.98062 18.2246 10.0867 18.2246H12.1743C12.2712 18.2246 12.3621 18.1766 12.4136 18.0956L13.9195 15.7668L15.2708 18.0866C15.3223 18.1736 15.4163 18.2276 15.5163 18.2276H17.5736C17.6766 18.2276 17.7705 18.1736 17.819 18.0866C17.8705 18.0026 17.8705 17.8945 17.819 17.8075Z"
    />
  </g>
</svg>

<svg xmlns="http://www.w3.org/2000/svg" viewBox="0 0 27 27"><g fill="#90a4ae" data-iconColor="Hasura Config"><path d="M26.194 9.08c.775-2.391.309-7.163-1.194-8.925a.455.455 0 0 0-.727.057L22.422 3.09a1.434 1.434 0 0 1-1.903.307 12.8 12.8 0 0 0-6.987-2.06 12.8 12.8 0 0 0-6.987 2.06 1.44 1.44 0 0 1-1.903-.307L2.791.212a.457.457 0 0 0-.727-.057C.56 1.92.094 6.692.87 9.08a5 5 0 0 1 .176 2.452c-.152.81-.303 1.789-.303 2.47 0 6.996 5.726 12.665 12.786 12.665 7.062 0 12.786-5.672 12.786-12.665 0-.681-.152-1.66-.303-2.47a5.04 5.04 0 0 1 .182-2.452M13.529 23.84c-5.46 0-9.899-4.4-9.899-9.808q0-.264.015-.525C3.842 9.822 6.102 6.674 9.3 5.173a9.9 9.9 0 0 1 4.233-.942c1.515 0 2.948.336 4.233.945 3.196 1.5 5.456 4.652 5.653 8.334q.015.262.015.525c-.003 5.405-4.444 9.805-9.904 9.805"/><path d="m17.819 17.808-2.53-4.346-2.17-3.622a.28.28 0 0 0-.245-.138h-2.072a.28.28 0 0 0-.249.144.28.28 0 0 0 .003.282l2.076 3.454-2.785 4.208a.281.281 0 0 0 .24.435h2.087a.28.28 0 0 0 .24-.13l1.505-2.328 1.352 2.32a.29.29 0 0 0 .245.14h2.058a.28.28 0 0 0 .245-.14.27.27 0 0 0 0-.28"/></g></svg>
